images/pages/settings/iphistory.svg

<svg id="Layer_1" data-name="Layer 1" xmlns="http://www.w3.org/2000/svg" viewBox="0 0 140 140"><defs><style>.cls-1{fill:#f3f2f2}.cls-2{fill:#cdcccb}.cls-3{fill:#2a3052}</style></defs><title>login_history</title><path class="cls-1" d="M1 1h138v138H1z"/><path class="cls-2" d="M138 2v136H2V2h136m2-2H0v140h140V0z"/><path class="cls-3" d="M73.45 120l-10.12-10.12 10.12-10.13 2.15 2.16-7.97 7.97 7.97 7.97-2.15 2.15z"/><path class="cls-3" d="M70 111.4v-3a42.66 42.66 0 1 0-32.42-14.98l-2.31 2A45.7 45.7 0 1 1 70 111.4z"/><path class="cls-3" d="M56.53 54.69h-3v-8.23a6.93 6.93 0 0 1 6.92-6.92h19.14a6.93 6.93 0 0 1 6.92 6.92v3.46h-3v-3.46a3.88 3.88 0 0 0-3.88-3.88H60.41a3.88 3.88 0 0 0-3.88 3.88z"/><path class="cls-3" d="M86.35 86.19h-32.7a7 7 0 0 1-7-7V60.14a7 7 0 0 1 7-7h32.7a7 7 0 0 1 7 7v19.08a7 7 0 0 1-7 6.97zm-32.7-30a3.93 3.93 0 0 0-3.93 3.93v19.1a3.93 3.93 0 0 0 3.93 3.93h32.7a3.93 3.93 0 0 0 3.93-3.93V60.14a3.93 3.93 0 0 0-3.93-3.93z"/><path class="cls-3" d="M73 66.45a3 3 0 1 0-4.13 2.71v5.54a1.17 1.17 0 1 0 2.35 0v-5.54A3 3 0 0 0 73 66.45z"/></svg>

<svg id="Layer_1" data-name="Layer 1" xmlns="http://www.w3.org/2000/svg" viewBox="0 0 140 140"><defs><style>.cls-1{fill:#f3f2f2;}.cls-2{fill:#cdcccb;}.cls-3{fill:#2a3052;}</style></defs><title>login_history</title><rect class="cls-1" x="1" y="1" width="138" height="138"/><path class="cls-2" d="M138,2V138H2V2H138m2-2H0V140H140V0Z"/><polygon class="cls-3" points="73.45 120 63.33 109.88 73.45 99.75 75.6 101.91 67.63 109.88 75.6 117.85 73.45 120"/><path class="cls-3" d="M70,111.4v-3A42.66,42.66,0,1,0,37.58,93.42l-2.31,2A45.7,45.7,0,1,1,70,111.4Z"/><path class="cls-3" d="M56.53,54.69h-3V46.46a6.93,6.93,0,0,1,6.92-6.92H79.59a6.93,6.93,0,0,1,6.92,6.92v3.46h-3V46.46a3.88,3.88,0,0,0-3.88-3.88H60.41a3.88,3.88,0,0,0-3.88,3.88Z"/><path class="cls-3" d="M86.35,86.19H53.65a7,7,0,0,1-7-7V60.14a7,7,0,0,1,7-7h32.7a7,7,0,0,1,7,7V79.22A7,7,0,0,1,86.35,86.19Zm-32.7-30a3.93,3.93,0,0,0-3.93,3.93V79.22a3.93,3.93,0,0,0,3.93,3.93h32.7a3.93,3.93,0,0,0,3.93-3.93V60.14a3.93,3.93,0,0,0-3.93-3.93Z"/><path class="cls-3" d="M73,66.45a3,3,0,1,0-4.13,2.71V74.7a1.17,1.17,0,1,0,2.35,0V69.16A3,3,0,0,0,73,66.45Z"/></svg>
